X: 6
T: Bizzarria d'Amore
P: AA BB CC x 6
K: F major
M: 4/4
L: 1/8P: A
"F"c2 |: \
"F"c2A2 B2c2 | "Gm"d3c B2d2 | "F"c2A2 A2"C"G2 | "F"A4 z2"F"A2 | "C"G2E2 F2D2 | "C"C4 c2BA | \
"C"G2"F"F2 F2"C"E2 |  [1 "F"F4 z2c2 :|]  [2 "F"F4 z2GA :: 
P: B
"Gm"B4 "Am"A4 | "Gm"G4 d2cB | "Gm"A2G2 G2"F"F2 | \
 [1 "Gm"G4 z2GA :|]  [2 "Gm"G4 z2GF :: 
P: C
"C"E2C4GF | "C"E2C4"F"AB | "Am"c2BA "C"G2G2 |  [1 "F"F4 z2GF :|] \
 [2 "F"F4 z2c2 |] 

